packages/ui/public/icons/graph.svg

<svg width="21" height="13" viewBox="0 0 21 13" fill="none" xmlns="http://www.w3.org/2000/svg">
<path d="M19.3594 0.5C18.4531 0.5 17.7188 1.24633 17.7188 2.16667C17.7188 2.35567 17.7565 2.534 17.8132 2.70333L13.8141 6.20167C13.5335 5.97467 13.1834 5.83333 12.7969 5.83333C12.351 5.83333 11.9477 6.01533 11.6524 6.30867L8.51977 4.71533C8.45875 3.851 7.7569 3.16667 6.89062 3.16667C5.98469 3.16667 5.25 3.913 5.25 4.83333C5.25 5.08533 5.30906 5.32167 5.4075 5.53567L2.21353 9.277C2.03437 9.209 1.84308 9.16667 1.64062 9.16667C0.734672 9.16667 0 9.913 0 10.8333C0 11.7537 0.734672 12.5 1.64062 12.5C2.54658 12.5 3.28125 11.7537 3.28125 10.8333C3.28125 10.6117 3.23663 10.4007 3.15919 10.2073L6.405 6.41733C6.55955 6.466 6.72033 6.5 6.89062 6.5C7.36805 6.5 7.79393 6.28933 8.09384 5.95833L11.1579 7.519C11.1687 8.43033 11.8971 9.16667 12.7969 9.16667C13.7032 9.16667 14.4375 8.42033 14.4375 7.5C14.4375 7.47033 14.4306 7.44267 14.429 7.41333L18.6966 3.689C18.8997 3.78033 19.1228 3.83333 19.3594 3.83333C20.2657 3.83333 21 3.08733 21 2.16667C21 1.24633 20.2657 0.5 19.3594 0.5H19.3594Z" fill="white"/>
</svg>

<svg width="21" height="13" fill="none" xmlns="http://www.w3.org/2000/svg"><path d="M19.36.5c-.907 0-1.641.746-1.641 1.667 0 .189.037.367.094.536l-3.999 3.499a1.61 1.61 0 0 0-1.017-.369c-.446 0-.85.182-1.145.476L8.52 4.715c-.061-.864-.763-1.548-1.63-1.548-.905 0-1.64.746-1.64 1.666 0 .252.06.489.157.703L2.214 9.277c-.18-.068-.37-.11-.573-.11C.735 9.167 0 9.913 0 10.833c0 .92.735 1.667 1.64 1.667.907 0 1.641-.746 1.641-1.667a1.68 1.68 0 0 0-.122-.626l3.246-3.79c.155.049.315.083.486.083.477 0 .903-.21 1.203-.542l3.064 1.561c.01.911.74 1.648 1.639 1.648.906 0 1.64-.747 1.64-1.667 0-.03-.006-.057-.008-.087l4.268-3.724c.203.091.426.144.662.144.907 0 1.641-.746 1.641-1.666C21 1.247 20.266.5 19.36.5Z" fill="#fff"/></svg>
